**kern	**silbe	**kern	**silbe	**harmony	**phrase	**leadinstrument	**rhyme	**timestamp	**harte
*ICvox	*	*ICvox	*	*M4/4	*	*	*	*	*M4/4
*VRlead	*	*VRharmonize	*	*	*	*	*	*	*
*Hstimme	*	*Nstimme	*	*	*	*	*	*	*
*f:	*	*f:	*	*f:	*f:	*f:	*	*f:	*f:
*M4/4	*	*M4/4	*	*	*	*	*	*	*
*clefF4	*	*clefF4	*	*	*	*	*	*	*
r;	.	r;	.	1r;	.	r	.	0	N.C.
=1	=1	=1	=1	=1	=1	=1	=1	=1	=1
*>Letter>A	*>Letter>A	*>Letter>A	*>Letter>A	*>Letter>A	*>Letter>A	*>Letter>A	*>Letter>A	*>Letter>A	*>Letter>A
*>Label>Intro	*>Label>Intro	*>Label>Intro	*>Label>Intro	*>Label>Intro	*>Label>Intro	*>Label>Intro	*>Label>Intro	*>Label>Intro	*>Label>Intro
1r	.	1r	.	1Fmm	newline	guitar	.	0.418	F:min7
=2	=2	=2	=2	=2	=2	=2	=2	=2	=2
1r	.	1r	.	2Fmm	.	guitar	.	2.243	F:min7/4
.	.	.	.	4Fmm	.	guitar	.	3.155	F:min7/b3
.	.	.	.	4Fmm	.	guitar	.	3.611	F:min7/2
=3	=3	=3	=3	=3	=3	=3	=3	=3	=3
1r	.	1r	.	1Fmm	.	guitar	.	4.067	F:min7
=4	=4	=4	=4	=4	=4	=4	=4	=4	=4
2r	.	1r	.	2Fmm	.	guitar	.	5.892	F:min7/4
8r	.	.	.	4Fmm	.	guitar	.	6.804	F:min7/b3
4F	Girl	.	.	.	.	.	.	.	.
.	.	.	.	4Fmm	.	guitar	.	7.261	F:min7/2
8E-	you	.	.	.	.	.	.	.	.
=5	=5	=5	=5	=5	=5	=5	=5	=5	=5
*>Letter>B	*>Letter>B	*>Letter>B	*>Letter>B	*>Letter>B	*>Letter>B	*>Letter>B	*>Letter>B	*>Letter>B	*>Letter>B
*>Label>Verse	*>Label>Verse	*>Label>Verse	*>Label>Verse	*>Label>Verse	*>Label>Verse	*>Label>Verse	*>Label>Verse	*>Label>Verse	*>Label>Verse
8F	thought	1r	.	1Fmm	newline	voice	.	7.717	F:min7
8F	you	.	.	.	.	.	.	.	.
8F	found	.	.	.	.	.	.	.	.
8F	the	.	.	.	.	.	.	.	.
8F	an-	.	.	.	.	.	.	.	.
8F	-swer	.	.	.	.	.	.	.	.
8F	on	.	.	.	.	.	.	.	.
8F	that	.	.	.	.	.	.	.	.
=6	=6	=6	=6	=6	=6	=6	=6	=6	=6
8F	mag-	1r	.	2Fmm	.	voice	.	9.526	F:min7/4
8F	-ic	.	.	.	.	.	.	.	.
8F	car-	.	.	.	.	.	.	.	.
8F	-pet	.	.	.	.	.	.	.	.
8F	ride	.	.	4Fmm	.	voice	.	10.43	F:min7/b3
4A-	last	.	.	.	.	.	.	.	.
.	.	.	.	4Fmm	.	voice	.	10.882	F:min7/2
[8c	night	.	.	.	.	.	A	.	.
=7	=7	=7	=7	=7	=7	=7	=7	=7	=7
2c]	_	1r	.	1Fmm	.	voice	.	11.335	F:min7
2r	.	.	.	.	.	.	.	.	.
=8	=8	=8	=8	=8	=8	=8	=8	=8	=8
2r	.	1r	.	2Fmm	.	voice	.	13.144	F:min7/4
8r	.	.	.	4Fmm	.	voice	.	14.048	F:min7/b3
8c	But	.	.	.	.	.	.	.	.
8e-	when	.	.	4Fmm	.	voice	.	14.5	F:min7/2
8c	you	.	.	.	.	.	.	.	.
=9	=9	=9	=9	=9	=9	=9	=9	=9	=9
8e-	wake	1r	.	1Fmm	newline	voice	.	14.953	F:min7
8f	up	.	.	.	.	.	.	.	.
8r	.	.	.	.	.	.	.	.	.
16f	in	.	.	.	.	.	.	.	.
16f	the	.	.	.	.	.	.	.	.
8f	mor-	.	.	.	.	.	.	.	.
8e-	_	.	.	.	.	.	.	.	.
16e-	-nin'	.	.	.	.	.	.	.	.
16e-	the	.	.	.	.	.	.	.	.
[8f	world	.	.	.	.	.	.	.	.
=10	=10	=10	=10	=10	=10	=10	=10	=10	=10
4.f]	_	1r	.	2Fmm	.	voice	.	16.782	F:min7/4
8e-	still	.	.	.	.	.	.	.	.
8c	gets	.	.	4Fmm	.	voice	.	17.697	F:min7/b3
8B-	you	.	.	.	.	.	.	.	.
8A-	up-	.	.	4Fmm	.	voice	.	18.154	F:min7/2
[8c	-tight	.	.	.	.	.	A	.	.
=11	=11	=11	=11	=11	=11	=11	=11	=11	=11
2c]	_	1r	.	1Fmm	.	voice	.	18.611	F:min7
2r	.	.	.	.	.	.	.	.	.
=12	=12	=12	=12	=12	=12	=12	=12	=12	=12
2r	.	1r	.	2Fmm	.	voice	.	20.441	F:min7/4
8r	.	.	.	4Fmm	.	voice	.	21.356	F:min7/b3
4c	Well	.	.	.	.	.	.	.	.
.	.	.	.	4Fmm	.	voice	.	21.813	F:min7/2
8A-	there's	.	.	.	.	.	.	.	.
=13	=13	=13	=13	=13	=13	=13	=13	=13	=13
8B-	noth-	1r	.	1D-M	newline	voice	.	22.27	D-:maj
8A-	-in'	.	.	.	.	.	.	.	.
8B-	that	.	.	.	.	.	.	.	.
8A-	uh	.	.	.	.	.	.	.	.
8B-	you	.	.	.	.	.	.	.	.
4A-	ain't	.	.	.	.	.	.	.	.
[8B-	tried	.	.	.	.	.	A	.	.
=14	=14	=14	=14	=14	=14	=14	=14	=14	=14
4B-]	_	1r	.	1D-M	.	voice	.	24.074	D-:maj
4r	.	.	.	.	.	.	.	.	.
4.r	.	.	.	.	.	.	.	.	.
8A-	To	.	.	.	.	.	.	.	.
=15	=15	=15	=15	=15	=15	=15	=15	=15	=15
8c	fill	1r	.	1Fm	.	voice	.	25.878	F:min
8A-	the	.	.	.	.	.	.	.	.
8A-	em-	.	.	.	.	.	.	.	.
8A-	-pti-	.	.	.	.	.	.	.	.
8A-	-ness	.	.	.	.	.	.	.	.
4B-	in	.	.	.	.	.	.	.	.
8F	side	.	.	.	.	.	A	.	.
=16	=16	=16	=16	=16	=16	=16	=16	=16	=16
4A-	_	1r	.	2Fm	.	voice	.	27.681	F:minmaj7
4r	.	.	.	.	.	.	.	.	.
4r	.	.	.	2Fmm	.	voice	.	28.583	F:min7
8c	When	.	.	.	.	.	.	.	.
8A-	you	.	.	.	.	.	.	.	.
=17	=17	=17	=17	=17	=17	=17	=17	=17	=17
8B-	come	1r	.	1D-M	newline	voice	.	29.485	D-:maj
4c	back	.	.	.	.	.	.	.	.
8B-	down	.	.	.	.	.	.	.	.
8A-	_	.	.	.	.	.	.	.	.
4A-	girl	.	.	.	.	.	.	.	.
8r	.	.	.	.	.	.	.	.	.
=18	=18	=18	=18	=18	=18	=18	=18	=18	=18
8c	Still	1r	.	1D-M	.	voice	.	31.284	D-:maj
4c	ain't	.	.	.	.	.	.	.	.
8r	.	.	.	.	.	.	.	.	.
8B-	feel-	.	.	.	.	.	.	.	.
4A-	-in'	.	.	.	.	.	.	.	.
[8c	right	.	.	.	.	.	A	.	.
=19	=19	=19	=19	=19	=19	=19	=19	=19	=19
2.c]	_	1r	.	1CMm	.	voice	.	33.082	C:7
4r	.	.	.	.	.	.	.	.	.
=20	=20	=20	=20	=20	=20	=20	=20	=20	=20
8r	.	1r	.	1CMm	.	voice	.	34.88	C:7
8F	And	.	.	.	.	.	.	.	.
8c	don't	.	.	.	.	.	.	.	.
8B-	it	.	.	.	.	.	.	.	.
4c	seem	.	.	.	.	.	.	.	.
4c	like	.	.	.	.	.	A	.	.
=21	=21	=21	=21	=21	=21	=21	=21	=21	=21
*>Letter>C	*>Letter>C	*>Letter>C	*>Letter>C	*>Letter>C	*>Letter>C	*>Letter>C	*>Letter>C	*>Letter>C	*>Letter>C
*>Label>Chorus	*>Label>Chorus	*>Label>Chorus	*>Label>Chorus	*>Label>Chorus	*>Label>Chorus	*>Label>Chorus	*>Label>Chorus	*>Label>Chorus	*>Label>Chorus
4c	Kicks	4c	Kicks	1A-M	newline	voice	.	36.679	A-:maj
4c	just	4c	just	.	.	.	.	.	.
4c	keep	4c	keep	.	.	.	.	.	.
8c	get-	8c	get-	.	.	.	.	.	.
8A-	-tin'	8A-	-tin'	.	.	.	.	.	.
=22	=22	=22	=22	=22	=22	=22	=22	=22	=22
8B-	har-	8B-	har-	1D-M	.	voice	.	38.489	D-:maj
8A-	-der	8A-	-der	.	.	.	.	.	.
8A-	to	8A-	to	.	.	.	.	.	.
8c	find	8c	find	.	.	.	A	.	.
8r	.	8r	.	.	.	.	.	.	.
8A-	and	8A-	and	.	.	.	.	.	.
8B-	all	8B-	all	.	.	.	.	.	.
8A-	your	8A-	your	.	.	.	.	.	.
=23	=23	=23	=23	=23	=23	=23	=23	=23	=23
4c	kicks	4c	kicks	1A-M	.	voice	.	40.299	A-:maj
4c	ain't	4c	ain't	.	.	.	.	.	.
4c	bring-	4c	bring-	.	.	.	.	.	.
4c	-in'	4c	-in'	.	.	.	.	.	.
=24	=24	=24	=24	=24	=24	=24	=24	=24	=24
8B-	you	8B-	you	1D-M	.	voice	.	42.11	D-:maj
8A-	piece	8A-	piece	.	.	.	.	.	.
8A-	of	8A-	of	.	.	.	.	.	.
8c	mind	8c	mind	.	.	.	A	.	.
8r	.	8r	.	.	.	.	.	.	.
8A-	Be-	8A-	Be-	.	.	.	.	.	.
8B-	-fore	8B-	-fore	.	.	.	.	.	.
8A-	you	8A-	you	.	.	.	.	.	.
=25	=25	=25	=25	=25	=25	=25	=25	=25	=25
4c	find	4c	find	1A-M	newline	voice	A	43.92	A-:maj
4c	out	4c	out	.	.	.	.	.	.
8c	it's	8c	it's	.	.	.	.	.	.
4c	too	4c	too	.	.	.	.	.	.
8c	late	8c	late	.	.	.	B	.	.
=26	=26	=26	=26	=26	=26	=26	=26	=26	=26
8r	.	8r	.	1A-M	.	voice	.	45.738	A-:maj
4c	girl	4c	girl	.	.	.	.	.	.
8c	you	8c	you	.	.	.	.	.	.
8c	be-	8c	be-	.	.	.	.	.	.
8B-	-tter	8B-	-tter	.	.	.	.	.	.
4A-	get	4A-	get	.	.	.	.	.	.
=27	=27	=27	=27	=27	=27	=27	=27	=27	=27
[1c	straight	[1c	straight	1CMm	.	voice	B	47.556	C:7
=28	=28	=28	=28	=28	=28	=28	=28	=28	=28
8c]	_	1c]	_	1CMm	.	voice	.	49.374	C:7
4c	No	.	.	.	.	.	.	.	.
8A-	but	.	.	.	.	.	.	.	.
4B-	not	.	.	.	.	.	.	.	.
4A-	with	.	.	.	.	.	.	.	.
=29	=29	=29	=29	=29	=29	=29	=29	=29	=29
*>Letter>A	*>Letter>A	*>Letter>A	*>Letter>A	*>Letter>A	*>Letter>A	*>Letter>A	*>Letter>A	*>Letter>A	*>Letter>A
*>Label>Trans	*>Label>Trans	*>Label>Trans	*>Label>Trans	*>Label>Trans	*>Label>Trans	*>Label>Trans	*>Label>Trans	*>Label>Trans	*>Label>Trans
2F	kicks	1r	.	1Fmm	newline	guitar	.	51.192	F:min7
2r	.	.	.	.	.	.	.	.	.
=30	=30	=30	=30	=30	=30	=30	=30	=30	=30
4.r	.	1r	.	2Fmm	.	guitar	.	53.018	F:min7/4
8F	You	.	.	.	.	.	.	.	.
4F	just	.	.	4Fmm	.	guitar	.	53.932	F:min7/b3
8A-	need	.	.	4Fmm	.	guitar	.	54.388	F:min7/2
8r	.	.	.	.	.	.	.	.	.
=31	=31	=31	=31	=31	=31	=31	=31	=31	=31
8c	help	1r	.	1Fmm	.	guitar	.	54.845	F:min7
4.F	girl	.	.	.	.	.	.	.	.
2r	.	.	.	.	.	.	.	.	.
=32	=32	=32	=32	=32	=32	=32	=32	=32	=32
2r	.	1r	.	2Fmm	.	guitar	.	56.672	F:min7/4
8r	.	.	.	4Fmm	.	guitar	.	57.585	F:min7/b3
4F	Well	.	.	.	.	.	.	.	.
.	.	.	.	4Fmm	.	guitar	.	58.042	F:min7/2
8E-	you	.	.	.	.	.	.	.	.
=33	=33	=33	=33	=33	=33	=33	=33	=33	=33
*>Letter>B	*>Letter>B	*>Letter>B	*>Letter>B	*>Letter>B	*>Letter>B	*>Letter>B	*>Letter>B	*>Letter>B	*>Letter>B
*>Label>Verse	*>Label>Verse	*>Label>Verse	*>Label>Verse	*>Label>Verse	*>Label>Verse	*>Label>Verse	*>Label>Verse	*>Label>Verse	*>Label>Verse
8F	think	1r	.	1Fmm	newline	voice	.	58.498	F:min7
8F	you're	.	.	.	.	.	.	.	.
16F	gon-	.	.	.	.	.	.	.	.
16F	-na	.	.	.	.	.	.	.	.
4F	find	.	.	.	.	.	.	.	.
8F	your-	.	.	.	.	.	.	.	.
8F	-self	.	.	.	.	.	.	.	.
8F	a	.	.	.	.	.	.	.	.
=34	=34	=34	=34	=34	=34	=34	=34	=34	=34
8F	lit-	1r	.	2Fmm	.	voice	.	60.318	F:min7/4
8F	-tle	.	.	.	.	.	.	.	.
8F	piece	.	.	.	.	.	.	.	.
8F	of	.	.	.	.	.	.	.	.
8F	par-	.	.	4Fmm	.	voice	.	61.228	F:min7/b3
4A-	-a-	.	.	.	.	.	.	.	.
.	.	.	.	4Fmm	.	voice	.	61.682	F:min7/2
[8c	-dise	.	.	.	.	.	A	.	.
=35	=35	=35	=35	=35	=35	=35	=35	=35	=35
2c]	_	1r	.	1Fmm	.	voice	.	62.137	F:min7
2r	.	.	.	.	.	.	.	.	.
=36	=36	=36	=36	=36	=36	=36	=36	=36	=36
2.r	.	1r	.	2Fmm	.	voice	.	63.957	F:min7/4
.	.	.	.	4Fmm	.	voice	.	64.866	F:min7/b3
16c	But	.	.	4Fmm	.	voice	.	65.321	F:min7/2
16c	it	.	.	.	.	.	.	.	.
[8e-	ain't	.	.	.	.	.	.	.	.
=37	=37	=37	=37	=37	=37	=37	=37	=37	=37
8e-]	_	1r	.	1Fmm	newline	voice	.	65.776	F:min7
4f	hap-	.	.	.	.	.	.	.	.
8e-	-pened	.	.	.	.	.	.	.	.
8f	yet	.	.	.	.	.	.	.	.
4r	.	.	.	.	.	.	.	.	.
8e-	so	.	.	.	.	.	.	.	.
=38	=38	=38	=38	=38	=38	=38	=38	=38	=38
4.f	girl	1r	.	2Fmm	.	voice	.	67.598	F:min7/4
8e-	you	.	.	.	.	.	.	.	.
16B-	be-	.	.	4Fmm	.	voice	.	68.509	F:min7/b3
8.B-	-tter	.	.	.	.	.	.	.	.
4A-	think	.	.	4Fmm	.	voice	.	68.965	F:min7/2
=39	=39	=39	=39	=39	=39	=39	=39	=39	=39
2c	twice	1r	.	1Fmm	.	voice	A	69.42	F:min7
2r	.	.	.	.	.	.	.	.	.
=40	=40	=40	=40	=40	=40	=40	=40	=40	=40
2r	.	1r	.	2Fmm	.	voice	.	71.243	F:min7/4
4r	.	.	.	4Fmm	.	voice	.	72.154	F:min7/b3
8c	Don't	.	.	4Fmm	.	voice	.	72.609	F:min7/2
8A-	you	.	.	.	.	.	.	.	.
=41	=41	=41	=41	=41	=41	=41	=41	=41	=41
8B-	see	1r	.	1D-M	newline	voice	.	73.065	D-:maj
8A-	no	.	.	.	.	.	.	.	.
8B-	mat-	.	.	.	.	.	.	.	.
8A-	-ter	.	.	.	.	.	.	.	.
6r	.	.	.	.	.	.	.	.	.
6B-	what	.	.	.	.	.	.	.	.
6A-	you	.	.	.	.	.	.	.	.
=42	=42	=42	=42	=42	=42	=42	=42	=42	=42
8B	do	1r	.	1D-M	.	voice	C	74.868	D-:maj
8c	_	.	.	.	.	.	.	.	.
4r	.	.	.	.	.	.	.	.	.
4r	.	.	.	.	.	.	.	.	.
8r	.	.	.	.	.	.	.	.	.
8A-	You'll	.	.	.	.	.	.	.	.
=43	=43	=43	=43	=43	=43	=43	=43	=43	=43
8c	ne-	1r	.	1Fm	.	voice	.	76.672	F:min
4A-	-ver	.	.	.	.	.	.	.	.
16A-	run-	.	.	.	.	.	.	.	.
16A-	-a-	.	.	.	.	.	.	.	.
8A-	-way	.	.	.	.	.	.	.	.
4B-	from	.	.	.	.	.	.	.	.
8F	you	.	.	.	.	.	C	.	.
=44	=44	=44	=44	=44	=44	=44	=44	=44	=44
4A-	_	1r	.	2Fm	.	voice	.	78.475	F:minmaj7
4r	.	.	.	.	.	.	.	.	.
8r	.	.	.	2Fmm	.	voice	.	79.377	F:min7
8A-	And	.	.	.	.	.	.	.	.
8c	if	.	.	.	.	.	.	.	.
8B-	you	.	.	.	.	.	.	.	.
=45	=45	=45	=45	=45	=45	=45	=45	=45	=45
4B-	keep	1r	.	1D-M	newline	voice	.	80.279	D-:maj
4c	on	.	.	.	.	.	.	.	.
8B-	run-	.	.	.	.	.	.	.	.
8A-	-nin'	.	.	.	.	.	.	.	.
4r	.	.	.	.	.	.	.	.	.
=46	=46	=46	=46	=46	=46	=46	=46	=46	=46
8r	.	1r	.	1D-M	.	voice	.	82.085	D-:maj
8c	you'll	.	.	.	.	.	.	.	.
8c	have	.	.	.	.	.	.	.	.
8c	to	.	.	.	.	.	.	.	.
8B-	pay	.	.	.	.	.	.	.	.
4A-	the	.	.	.	.	.	.	.	.
[8c	price	.	.	.	.	.	A	.	.
=47	=47	=47	=47	=47	=47	=47	=47	=47	=47
2.c]	_	1r	.	1CMm	.	voice	.	83.892	C:7
4r	.	.	.	.	.	.	.	.	.
=48	=48	=48	=48	=48	=48	=48	=48	=48	=48
8r	.	1r	.	1CMm	.	voice	.	85.698	C:7
8F	And	.	.	.	.	.	.	.	.
8c	don't	.	.	.	.	.	.	.	.
8B-	it	.	.	.	.	.	.	.	.
4c	seem	.	.	.	.	.	.	.	.
4c	like	.	.	.	.	.	A	.	.
=49	=49	=49	=49	=49	=49	=49	=49	=49	=49
*>Letter>C	*>Letter>C	*>Letter>C	*>Letter>C	*>Letter>C	*>Letter>C	*>Letter>C	*>Letter>C	*>Letter>C	*>Letter>C
*>Label>Chorus	*>Label>Chorus	*>Label>Chorus	*>Label>Chorus	*>Label>Chorus	*>Label>Chorus	*>Label>Chorus	*>Label>Chorus	*>Label>Chorus	*>Label>Chorus
4c	Kicks	4c	Kicks	1A-M	newline	voice	.	87.505	A-:maj
4c	just	4c	just	.	.	.	.	.	.
4c	keep	4c	keep	.	.	.	.	.	.
8c	get-	8c	get-	.	.	.	.	.	.
8A-	-tin'	8A-	-tin'	.	.	.	.	.	.
=50	=50	=50	=50	=50	=50	=50	=50	=50	=50
8B-	har-	8B-	har-	1D-M	.	voice	.	89.325	D-:maj
8A-	-der	8A-	-der	.	.	.	.	.	.
8A-	to	8A-	to	.	.	.	.	.	.
8c	find	8c	find	.	.	.	A	.	.
8r	.	8r	.	.	.	.	.	.	.
8A-	and	8A-	and	.	.	.	.	.	.
8B-	all	8B-	all	.	.	.	.	.	.
8A-	your	8A-	your	.	.	.	.	.	.
=51	=51	=51	=51	=51	=51	=51	=51	=51	=51
4c	kicks	4c	kicks	1A-M	.	voice	.	91.145	A-:maj
4c	ain't	4c	ain't	.	.	.	.	.	.
4c	bring-	4c	bring-	.	.	.	.	.	.
4c	-in'	4c	-in'	.	.	.	.	.	.
=52	=52	=52	=52	=52	=52	=52	=52	=52	=52
8B-	you	8B-	you	1D-M	.	voice	.	92.966	D-:maj
8A-	piece	8A-	piece	.	.	.	.	.	.
8A-	of	8A-	of	.	.	.	.	.	.
8c	mind	8c	mind	.	.	.	A	.	.
8r	.	8r	.	.	.	.	.	.	.
8A-	Be-	8A-	Be-	.	.	.	.	.	.
8B-	-fore	8B-	-fore	.	.	.	.	.	.
8A-	you	8A-	you	.	.	.	.	.	.
=53	=53	=53	=53	=53	=53	=53	=53	=53	=53
4c	find	4c	find	1A-M	newline	voice	.	94.786	A-:maj
4c	out	4c	out	.	.	.	.	.	.
8c	it's	8c	it's	.	.	.	.	.	.
4c	too	4c	too	.	.	.	.	.	.
8c	late	8c	late	.	.	.	B	.	.
=54	=54	=54	=54	=54	=54	=54	=54	=54	=54
8r	.	8r	.	1A-M	.	voice	.	96.626	A-:maj
4c	girl	4c	girl	.	.	.	.	.	.
8c	you	8c	you	.	.	.	.	.	.
8c	be-	8c	be-	.	.	.	.	.	.
8B-	-tter	8B-	-tter	.	.	.	.	.	.
4A-	get	4A-	get	.	.	.	.	.	.
=55	=55	=55	=55	=55	=55	=55	=55	=55	=55
[1c	straight	[1c	straight	1CMm	.	voice	B	98.466	C:7
=56	=56	=56	=56	=56	=56	=56	=56	=56	=56
8c]	_	1c]	_	1CMm	.	voice	.	100.306	C:7
4c	No	.	.	.	.	.	.	.	.
8A	you	.	.	.	.	.	.	.	.
4B-	don't	.	.	.	.	.	.	.	.
4A	need	.	.	.	.	.	.	.	.
=57	=57	=57	=57	=57	=57	=57	=57	=57	=57
*>Letter>D	*>Letter>D	*>Letter>D	*>Letter>D	*>Letter>D	*>Letter>D	*>Letter>D	*>Letter>D	*>Letter>D	*>Letter>D
*>Label>Bridge	*>Label>Bridge	*>Label>Bridge	*>Label>Bridge	*>Label>Bridge	*>Label>Bridge	*>Label>Bridge	*>Label>Bridge	*>Label>Bridge	*>Label>Bridge
2.F	kicks	1r	.	1FM	newline	voice	.	102.146	F:maj
4r	.	.	.	.	.	.	.	.	.
=58	=58	=58	=58	=58	=58	=58	=58	=58	=58
4.r	.	1r	.	1FM	.	voice	.	104.062	F:maj
8A-	To	.	.	.	.	.	.	.	.
4A-	help	.	.	.	.	.	.	.	.
4c	you	.	.	.	.	.	.	.	.
=59	=59	=59	=59	=59	=59	=59	=59	=59	=59
4d-	face	1r	.	1Dm	.	voice	.	105.979	D:min
8r	.	.	.	.	.	.	.	.	.
8A-	the	.	.	.	.	.	.	.	.
8A-	world	.	.	.	.	.	.	.	.
4G	each	.	.	.	.	.	.	.	.
[8F	day	.	.	.	.	.	C	.	.
=60	=60	=60	=60	=60	=60	=60	=60	=60	=60
8F]	_	1r	.	1Dm	.	voice	.	107.895	D:min
8r	.	.	.	.	.	.	.	.	.
4r	.	.	.	.	.	.	.	.	.
4G	That	.	.	.	.	.	.	.	.
8A-	road	.	.	.	.	.	.	.	.
8G	_	.	.	.	.	.	.	.	.
=61	=61	=61	=61	=61	=61	=61	=61	=61	=61
4F	goes	1r	.	1B-M	newline	voice	.	109.811	B-:maj
8G	no-	.	.	.	.	.	.	.	.
4.F	-where	.	.	.	.	.	.	.	.
4r	.	.	.	.	.	.	.	.	.
=62	=62	=62	=62	=62	=62	=62	=62	=62	=62
4.r	.	1r	.	1B-M	.	voice	.	111.698	B-:maj
4F	I'm	.	.	.	.	.	.	.	.
8A-	gon-	.	.	.	.	.	.	.	.
4c	-na	.	.	.	.	.	.	.	.
=63	=63	=63	=63	=63	=63	=63	=63	=63	=63
8c	help	1r	.	1CM	.	voice	.	113.584	C:maj
4c	you	.	.	.	.	.	.	.	.
4c	find	.	.	.	.	.	.	.	.
4c	your-	.	.	.	.	.	.	.	.
8c	-self	.	.	.	.	.	.	.	.
=64	=64	=64	=64	=64	=64	=64	=64	=64	=64
4f	_	1r	.	1CM	.	voice	.	115.47	C:maj
8r	.	.	.	.	.	.	.	.	.
8c	a-	.	.	.	.	.	.	.	.
8c	-no-	.	.	.	.	.	.	.	.
4d-	-ther	.	.	.	.	.	.	.	.
8d-	way	.	.	.	.	.	C	.	.
=65	=65	=65	=65	=65	=65	=65	=65	=65	=65
*>Letter>C	*>Letter>C	*>Letter>C	*>Letter>C	*>Letter>C	*>Letter>C	*>Letter>C	*>Letter>C	*>Letter>C	*>Letter>C
*>Label>Chorus	*>Label>Chorus	*>Label>Chorus	*>Label>Chorus	*>Label>Chorus	*>Label>Chorus	*>Label>Chorus	*>Label>Chorus	*>Label>Chorus	*>Label>Chorus
4c	_	4c	Kicks	1A-M	newline	voice	.	117.356	A-:maj
4r	.	4c	just	.	.	.	.	.	.
2r	.	4c	keep	.	.	.	.	.	.
.	.	8c	get-	.	.	.	.	.	.
.	.	8A-	-tin'	.	.	.	.	.	.
=66	=66	=66	=66	=66	=66	=66	=66	=66	=66
8r	.	8B-	har-	1D-M	.	voice	.	119.193	D-:maj
4f	Oh	8A-	-der	.	.	.	.	.	.
.	.	8A-	to	.	.	.	.	.	.
8e-	you	8c	find	.	.	.	A	.	.
8f	don't	8r	.	.	.	.	.	.	.
8f	need	8A-	and	.	.	.	.	.	.
8e-	_	8B-	all	.	.	.	.	.	.
8e-	kicks	8A-	your	.	.	.	.	.	.
=67	=67	=67	=67	=67	=67	=67	=67	=67	=67
8r	.	4c	kicks	1A-M	.	voice	.	121.03	A-:maj
8e-	girl	.	.	.	.	.	.	.	.
8c	_	4c	ain't	.	.	.	.	.	.
4.e-	_	.	.	.	.	.	.	.	.
.	.	4c	bring-	.	.	.	.	.	.
4r	.	4c	-in'	.	.	.	.	.	.
=68	=68	=68	=68	=68	=68	=68	=68	=68	=68
2r	.	8B-	you	1D-M	.	voice	.	122.868	D-:maj
.	.	8A-	piece	.	.	.	.	.	.
.	.	8A-	of	.	.	.	.	.	.
.	.	8c	mind	.	.	.	A	.	.
8f	Just	8r	.	.	.	.	.	.	.
4f	need	8A-	Be-	.	.	.	.	.	.
.	.	8B-	-fore	.	.	.	.	.	.
8e-	help	8A-	you	.	.	.	.	.	.
=69	=69	=69	=69	=69	=69	=69	=69	=69	=69
8r	.	4c	find	1A-M	newline	voice	A	124.705	A-:maj
4e-	girl	.	.	.	.	.	.	.	.
.	.	4c	out	.	.	.	.	.	.
8c	_	.	.	.	.	.	.	.	.
16e-	_	8c	it's	.	.	.	.	.	.
16d-	_	.	.	.	.	.	.	.	.
4.c	_	4c	too	.	.	.	.	.	.
.	.	8c	late	.	.	.	B	.	.
=70	=70	=70	=70	=70	=70	=70	=70	=70	=70
8r	.	8r	.	1A-M	.	voice	.	126.54	A-:maj
4c	girl	4c	girl	.	.	.	.	.	.
8c	you	8c	you	.	.	.	.	.	.
8c	be-	8c	be-	.	.	.	.	.	.
8B-	-tter	8B-	-tter	.	.	.	.	.	.
4A-	get	4A-	get	.	.	.	.	.	.
=71	=71	=71	=71	=71	=71	=71	=71	=71	=71
[1c	straight	[1c	straight	1CMm	.	voice	B	128.374	C:7
=72	=72	=72	=72	=72	=72	=72	=72	=72	=72
4c]	_	1c]	_	1CMm	.	voice	.	130.209	C:7
8c	don't	.	.	.	.	.	.	.	.
8B-	it	.	.	.	.	.	.	.	.
4c	seem	.	.	.	.	.	.	.	.
4c	like	.	.	.	.	.	A	.	.
=73	=73	=73	=73	=73	=73	=73	=73	=73	=73
*>Letter>C	*>Letter>C	*>Letter>C	*>Letter>C	*>Letter>C	*>Letter>C	*>Letter>C	*>Letter>C	*>Letter>C	*>Letter>C
*>Label>Fadeout	*>Label>Fadeout	*>Label>Fadeout	*>Label>Fadeout	*>Label>Fadeout	*>Label>Fadeout	*>Label>Fadeout	*>Label>Fadeout	*>Label>Fadeout	*>Label>Fadeout
1r	.	4c	Kicks	1A-M	newline	voice	.	132.044	A-:maj
.	.	4c	just	.	.	.	.	.	.
.	.	4c	keep	.	.	.	.	.	.
.	.	8c	get-	.	.	.	.	.	.
.	.	8A-	-tin'	.	.	.	.	.	.
=74	=74	=74	=74	=74	=74	=74	=74	=74	=74
8r	.	8B-	har-	1D-M	.	voice	.	133.864	D-:maj
4f	Oh	8A-	-der	.	.	.	.	.	.
.	.	8A-	to	.	.	.	.	.	.
8e-	you	8c	find	.	.	.	A	.	.
8f	don't	8r	.	.	.	.	.	.	.
4e-	need	8A-	and	.	.	.	.	.	.
.	.	8B-	all	.	.	.	.	.	.
8e-	kicks	8A-	your	.	.	.	.	.	.
=75	=75	=75	=75	=75	=75	=75	=75	=75	=75
8r	.	4c	kicks	1A-M	.	voice	.	135.685	A-:maj
4e-	girl	.	.	.	.	.	.	.	.
.	.	4c	ain't	.	.	.	.	.	.
8c	_	.	.	.	.	.	.	.	.
16e-	_	4c	bring-	.	.	.	.	.	.
16d-	_	.	.	.	.	.	.	.	.
4.c	_	.	.	.	.	.	.	.	.
.	.	4c	-in'	.	.	.	.	.	.
=76	=76	=76	=76	=76	=76	=76	=76	=76	=76
8r	.	8B-	you	1D-M	.	voice	.	137.506	D-:maj
4f	Oh	8A-	piece	.	.	.	.	.	.
.	.	8A-	of	.	.	.	.	.	.
8e-	you	8c	mind	.	.	.	A	.	.
8f	just	8r	.	.	.	.	.	.	.
4e-	need	8A-	Be-	.	.	.	.	.	.
.	.	8B-	-fore	.	.	.	.	.	.
8e-	help	8A-	you	.	.	.	.	.	.
=77	=77	=77	=77	=77	=77	=77	=77	=77	=77
1r	.	4c	find	1A-M	newline	voice	A	139.326	A-:maj
.	.	4c	out	.	.	.	.	.	.
.	.	8c	it's	.	.	.	.	.	.
.	.	4c	too	.	.	.	.	.	.
.	.	8c	late	.	.	.	B	.	.
=78	=78	=78	=78	=78	=78	=78	=78	=78	=78
1r	.	8r	.	1A-M	.	voice	.	140.886	A-:maj
.	.	4c	girl	.	.	.	.	.	.
.	.	8c	you	.	.	.	.	.	.
.	.	8c	be-	.	.	.	.	.	.
.	.	8B-	-tter	.	.	.	.	.	.
.	.	4A-	get	.	.	.	.	.	.
=79	=79	=79	=79	=79	=79	=79	=79	=79	=79
1r	.	[1c	straight	1CMm	.	voice	B	142.446	C:7
=80	=80	=80	=80	=80	=80	=80	=80	=80	=80
1r	.	1c]	_	1CMm	.	voice	.	144.006	C:7
r;	.	r;	.	1r;	.	r	.	145.566	N.C.
r;	.	r;	.	1r;	.	r	.	149.316	N.C.
*-	*-	*-	*-	*-	*-	*-	*-	*-	*-
!!!BillboardChartDate: 1966/06/04
!!!BillboardPeak: 4
!!!BillboardWeeksOnChart: 14
!!!COC: Paul Revere & The Raiders
!!!ENC: Nathaniel Condit-Schultz
!!!EST: Awating manual error checking and editing.
!!!OTL: Kicks
!!!RDF**chordsym: original McGill chord annotation + (implied pitch class set, with bass pitch in first position)
!!!RDF**harmony: **recip + pitch class of root + harmonic quality
!!!RDF**leadinstrument: original McGill primary instrumentation annotation
!!!RDF**phrase: newline = linebreak in original McGill transcription
!!!RDF**timestamp: McGill audio timestamp in seconds
!!!RDT: 2017/01/12/
!!!SampleActualRank: 14
!!!SampleID#: 1181
!!!SampleTargetRank: 14
